X: 3994
T: Blackthorn Stick, The
R: jig
M: 6/8
K: Gmajor
d|g>fg efg|dBG AFD|DGG AGA|BGB ABd|
gfg efg|dBG AFD|AGG AGA|BGG G2:|
|:d|edd gdd|edd gdB|def gdB|eAA ABd|
edd gdd|edd gdB|DGG AGA|BGG G2:|

